modules/coreui-icons-free/icons/wifi-signal-0.svg

<!-- Generated by IcoMoon.io -->
<svg version="1.1" xmlns="http://www.w3.org/2000/svg" width="24" height="24" viewBox="0 0 24 24">
<title>wifi-signal-0</title>
<path d="M11.146 22.5h1.708l10.771-15.382v-1.286l-0.010-0.007c-3.237-2.291-7.266-3.662-11.615-3.662s-8.378 1.371-11.678 3.705l0.063-0.043-0.010 0.007v1.286zM12 3.662c0.009-0 0.019-0 0.030-0 3.753 0 7.248 1.109 10.174 3.017l-0.072-0.044-10.132 14.47-10.132-14.47c2.854-1.864 6.348-2.973 10.102-2.973 0.011 0 0.021 0 0.032 0h-0.002z"></path>
</svg>

<svg xmlns="http://www.w3.org/2000/svg" width="24" height="24" viewBox="0 0 24 24"><path d="M11.146 22.5h1.708L23.625 7.118V5.832l-.01-.007C20.378 3.534 16.349 2.163 12 2.163S3.622 3.534.322 5.868l.063-.043-.01.007v1.286zM12 3.662h.03c3.753 0 7.248 1.109 10.174 3.017l-.072-.044L12 21.105 1.868 6.635C4.722 4.771 8.216 3.662 11.97 3.662h.032H12z"/></svg>
